X: 1
T: Old Joe's Jig
C: J-26
M: 6/8
Z: Transcribed to abc by Mary Lou Knack
R: jig
K: D
d/e/| "D"f2A AFA| "G"BGB "D"A2A| "G"BdB "D"AFA| "Em"Bcd "A"ede|
      "D"f2A AFA| "G"BGB "D"A2A| "G"BdB "D"AFA| "A"Bdc "D"d2:|
\
d/e/| "D"fgf "A"efe| "G"dBA "D"d2e | faa "Bm"afd| "F#m"faa "G"b2a|
      "D"fgf "A"efe| "G"dBA "D"d2e | "D"fAA AFA| "G"GBd "D"d3 d/e/|
      "D"fgf "A"efe| "G"dBA "D"d2e | faa "Bm"afd| "F#m"faa "G"b2a|
      "D"fgf "A"efe| "G"dBA "D"d2e | "D"faa aba| "A"gfe "D"d3 |]
%%text 9/1/98.  Transcribed by Jim Guinness from John Doonan "At the Feis" (Topic 12TS368).
